client/resources/iconsets/breeze/src/svg/large/icon_task_large_white.svg

<svg xmlns="http://www.w3.org/2000/svg" width="32" height="32"><path d="M16 1a4 4 0 0 0-4 4H6a1 1 0 0 0-1 1v22a1 1 0 0 0 1 1h20a1 1 0 0 0 1-1V6a1 1 0 0 0-1-1h-6a4 4 0 0 0-4-4zm0 2a2 2 0 1 1 0 4 2 2 0 1 1 0-4zM7 7h4v2h10V7h4v20H7V7z" fill="#fff"/></svg>

<svg xmlns="http://www.w3.org/2000/svg" width="32" height="32" viewBox="0 0 32 32">
 <path style="fill:#ffffff"
       d="M 16 1 A 4 4 0 0 0 12 5 L 6 5 C 5.446 5 5 5.446 5 6 L 5 28 C 5 28.554 5.446 29 6 29 L 26 29 C 26.554 29 27 28.554 27 28 L 27 6 C 27 5.446 26.554 5 26 5 L 20 5 A 4 4 0 0 0 16 1 z M 16 3 A 2 2 0 0 1 18 5 A 2 2 0 0 1 16 7 A 2 2 0 0 1 14 5 A 2 2 0 0 1 16 3 z M 7 7 L 11 7 L 11 9 L 21 9 L 21 7 L 25 7 L 25 27 L 7 27 L 7 7 z "
       />
</svg>
